src/standard/open-source.svg

<svg xmlns="http://www.w3.org/2000/svg" viewBox="0 0 36 36">
  <path d="M28.5 10.62a3.12 3.12 0 0 0 0-6.24 3.12 3.12 0 0 0 0 6.24Zm0-5a1.88 1.88 0 0 1 0 3.75 1.88 1.88 0 0 1 0-3.75Zm-3 13.76a6.12 6.12 0 0 0-6.12 6.12c.28 8.11 12 8.1 12.25 0a6.13 6.13 0 0 0-6.13-6.12Zm0 11c-6.44-.21-6.44-9.55 0-9.76 6.44.21 6.44 9.55 0 9.76Zm-8.59-5.11a9.46 9.46 0 0 1-1.41.11c-.95-.16-1.24 1.12-.26 1.24a10.39 10.39 0 0 0 1.85-.11.63.63 0 0 0-.18-1.24Zm7.91-13.03a.62.62 0 0 0 1.18-.41c-.32-.76-1.45-3.91-2.5-3.16a.61.61 0 0 0-.12.87 9.76 9.76 0 0 1 1.44 2.7ZM12.25 24.83a10 10 0 0 1-2.69-1.44.63.63 0 0 0-.88.12c-.79 1 2.62 2.35 3.37 2.54a.63.63 0 0 0 .2-1.22Zm9.29-17.3a.63.63 0 0 0 .51-.26c.71-1.08-2.48-2.09-3.24-2.4a.63.63 0 0 0-.37 1.2 22.52 22.52 0 0 1 3.1 1.46ZM12.2 6.16a11.6 11.6 0 0 1 3.21-.53c.82 0 .8-1.32 0-1.25s-4.16.11-3.8 1.35a.63.63 0 0 0 .59.43ZM5 16.05a.64.64 0 0 0 .63-.62 9.6 9.6 0 0 1 .49-3 .62.62 0 0 0-.4-.79c-1.24-.37-1.28 3-1.34 3.8a.62.62 0 0 0 .62.61Zm1.07 2.4a.62.62 0 0 0-1.19.37c.32.78 1.3 3.93 2.4 3.24a.63.63 0 0 0 .15-.87 10 10 0 0 1-1.36-2.74Zm3.74-11.8a.61.61 0 0 0-.87-.13c-.62.53-3.32 2.48-2.3 3.31a.62.62 0 0 0 .87-.14 9.88 9.88 0 0 1 2.17-2.16.63.63 0 0 0 .13-.88ZM25.8 17.62c1.05 0 .73-1.43.83-2.12.06-.42-.19-.91-.65-.87a.69.69 0 0 0-.6.87c.12.69-.53 1.89.42 2.12Z"/>
</svg>

<svg id="bb569597-d1cc-42d9-9807-959b430637f0" data-name="Icon" xmlns="http://www.w3.org/2000/svg" viewBox="0 0 36 36">
  <title>Open source icon - Black</title>
<desc>communication, trust, teamwork, open, collaboration, people and audiences</desc>
<metadata><?xpacket begin="﻿" id="W5M0MpCehiHzreSzNTczkc9d"?>
<x:xmpmeta xmlns:x="adobe:ns:meta/" x:xmptk="Adobe XMP Core 8.0-c001 1.000000, 0000/00/00-00:00:00        ">
   <rdf:RDF xmlns:rdf="http://www.w3.org/1999/02/22-rdf-syntax-ns#">
      <rdf:Description rdf:about=""
            xmlns:xmp="http://ns.adobe.com/xap/1.0/"
            xmlns:dc="http://purl.org/dc/elements/1.1/"
            xmlns:cq="http://www.day.com/jcr/cq/1.0"
            xmlns:tiff="http://ns.adobe.com/tiff/1.0/">
         <xmp:rhcc-effective-on>2023-12-08T17:34:00.983Z</xmp:rhcc-effective-on>
         <xmp:rhcc-metadata-complete-moderator>pending</xmp:rhcc-metadata-complete-moderator>
         <xmp:rhcc-translation-id>TRAe4fd06a9-de6f-428f-911e-1a94ea61f23e</xmp:rhcc-translation-id>
         <xmp:brand-content-type>Icon</xmp:brand-content-type>
         <xmp:CreateDate>2023-12-08T17:34:00.983Z</xmp:CreateDate>
         <xmp:rhcc-effective-on-set-on-upload>true</xmp:rhcc-effective-on-set-on-upload>
         <xmp:rhcc-metadata-complete-uploader>pending</xmp:rhcc-metadata-complete-uploader>
         <xmp:rhcc-file-last-modified>2023-12-08T17:34:11.013Z</xmp:rhcc-file-last-modified>
         <xmp:rhcc-audience>rhcc-audience:internal</xmp:rhcc-audience>
         <xmp:rhcc-rights-restricted>no</xmp:rhcc-rights-restricted>
         <xmp:brand-content-subtype>Icon</xmp:brand-content-subtype>
         <xmp:rhcc-derivative-id>DERe4fd06a9-de6f-428f-911e-1a94ea61f23e</xmp:rhcc-derivative-id>
         <xmp:brand-logo-color>Black</xmp:brand-logo-color>
         <xmp:rhcc-notify-portal-subscribers-on-change>yes</xmp:rhcc-notify-portal-subscribers-on-change>
         <dc:format>image/svg+xml</dc:format>
         <dc:modified>2024-02-09T20:22:39.749Z</dc:modified>
         <dc:title>
            <rdf:Alt>
               <rdf:li xml:lang="x-default">Open source icon - Black</rdf:li>
            </rdf:Alt>
         </dc:title>
         <dc:description>
            <rdf:Alt>
               <rdf:li xml:lang="x-default">communication, trust, teamwork, open, collaboration, people and audiences</rdf:li>
            </rdf:Alt>
         </dc:description>
         <cq:lastReplicationAction_scene7>Activate</cq:lastReplicationAction_scene7>
         <cq:lastReplicationAction_publish>Activate</cq:lastReplicationAction_publish>
         <cq:lastReplicated_publish>2024-02-09T22:02:25.945Z</cq:lastReplicated_publish>
         <cq:lastReplicatedBy>workflow-process-service</cq:lastReplicatedBy>
         <cq:lastReplicationAction>Activate</cq:lastReplicationAction>
         <cq:lastReplicatedBy_publish>workflow-process-service</cq:lastReplicatedBy_publish>
         <cq:isDelivered>true</cq:isDelivered>
         <cq:lastReplicated>2024-02-09T22:02:25.945Z</cq:lastReplicated>
         <cq:lastReplicatedBy_scene7>workflow-process-service</cq:lastReplicatedBy_scene7>
         <cq:lastReplicated_scene7>2024-02-09T22:02:25.945Z</cq:lastReplicated_scene7>
         <tiff:ImageLength>36</tiff:ImageLength>
         <tiff:ImageWidth>36</tiff:ImageWidth>
      </rdf:Description>
   </rdf:RDF>
</x:xmpmeta>
                                                                                                    
                                                                                                    
                                                                                                    
                                                                                                    
                                                                                                    
                                                                                                    
                                                                                                    
                                                                                                    
                                                                                                    
                                                                                                    
                                 
<?xpacket end="w"?></metadata>
<g>
    <path d="M28.5,10.62a3.12,3.12,0,0,0,0-6.24A3.12,3.12,0,0,0,28.5,10.62Zm0-5a1.88,1.88,0,0,1,0,3.75A1.88,1.88,0,0,1,28.5,5.62Z"/>
    <path d="M25.5,19.38a6.12,6.12,0,0,0-6.12,6.12c.28,8.11,12,8.1,12.25,0A6.13,6.13,0,0,0,25.5,19.38Zm0,11c-6.44-.21-6.44-9.55,0-9.76C31.94,20.83,31.94,30.17,25.5,30.38Z"/>
    <path d="M16.91,25.27a9.46,9.46,0,0,1-1.41.11c-.95-.16-1.24,1.12-.26,1.24a10.39,10.39,0,0,0,1.85-.11A.63.63,0,0,0,16.91,25.27Z"/>
    <path d="M24.82,12.24A.62.62,0,0,0,26,11.83c-.32-.76-1.45-3.91-2.5-3.16a.61.61,0,0,0-.12.87A9.76,9.76,0,0,1,24.82,12.24Z"/>
    <path d="M12.25,24.83a10,10,0,0,1-2.69-1.44.63.63,0,0,0-.88.12c-.79,1,2.62,2.35,3.37,2.54A.63.63,0,0,0,12.25,24.83Z"/>
    <path d="M21.54,7.53a.63.63,0,0,0,.51-.26c.71-1.08-2.48-2.09-3.24-2.4a.63.63,0,0,0-.37,1.2A22.52,22.52,0,0,1,21.54,7.53Z"/>
    <path d="M12.2,6.16a11.6,11.6,0,0,1,3.21-.53c.82,0,.8-1.32,0-1.25s-4.16.11-3.8,1.35A.63.63,0,0,0,12.2,6.16Z"/>
    <path d="M5,16.05a.64.64,0,0,0,.63-.62,9.6,9.6,0,0,1,.49-3,.62.62,0,0,0-.4-.79c-1.24-.37-1.28,3-1.34,3.8A.62.62,0,0,0,5,16.05Z"/>
    <path d="M6.07,18.45a.62.62,0,0,0-1.19.37c.32.78,1.3,3.93,2.4,3.24a.63.63,0,0,0,.15-.87A10,10,0,0,1,6.07,18.45Z"/>
    <path d="M9.81,6.65a.61.61,0,0,0-.87-.13C8.32,7.05,5.62,9,6.64,9.83a.62.62,0,0,0,.87-.14A9.88,9.88,0,0,1,9.68,7.53.63.63,0,0,0,9.81,6.65Z"/>
    <path d="M25.8,17.62c1.05,0,.73-1.43.83-2.12.06-.42-.19-.91-.65-.87a.69.69,0,0,0-.6.87C25.5,16.19,24.85,17.39,25.8,17.62Z"/>
  </g>
</svg>
